assets/icons/qvision/format_strikethrough.svg

<svg xmlns="http://www.w3.org/2000/svg" height="24" viewBox="0 0 24 24" width="24"><path d="M0 0h24v24H0z" fill="none"/><path d="M10 19h4v-3h-4v3zM5 4v3h5v3h4V7h5V4H5zM3 14h18v-2H3v2z"/></svg>

<svg width="24" height="24" viewBox="0 0 24 24" fill="none" xmlns="http://www.w3.org/2000/svg">
<g clip-path="url(#clip0_147_2634)">
<path d="M10 19H14V16H10V19ZM5 4V7H10V10H14V7H19V4H5ZM3 14H21V12H3V14Z" fill="#323232"/>
</g>
<defs>
<clipPath id="clip0_147_2634">
<rect width="24" height="24" fill="white"/>
</clipPath>
</defs>
</svg>
